src/assets/images/iconOne.svg

<svg width="32" height="32" viewBox="0 0 32 32" fill="none" xmlns="http://www.w3.org/2000/svg">
<g clip-path="url(#clip0_102_429)">
<path d="M12.3392 15.3726C9.9415 6.18658 17.6679 2.11991 21.194 0.85842C20.2208 0.52541 19.2081 0.282707 18.1587 0.141602C14.9401 1.99291 9.70736 7.62586 12.3392 15.3726Z" fill="#E23C18"/>
<path d="M12.3438 16.6646C6.95315 8.85581 12.8121 2.39598 15.6979 0C14.64 0.0197548 13.6076 0.141106 12.609 0.355587C10.2169 3.19464 7.22114 10.281 12.3438 16.6618V16.6646Z" fill="#E23C18"/>
<path d="M13.6252 18.8609C4.47992 16.3435 4.81843 7.62601 5.4898 3.9375C4.70559 4.62045 3.98909 5.3796 3.35157 6.20366C3.34593 9.91757 5.60545 17.2664 13.6252 18.8609Z" fill="#E23C18"/>
<path d="M12.7898 17.8757C5.05212 12.3782 8.35819 4.29567 10.251 1.06152C9.27215 1.43969 8.34126 1.90816 7.46679 2.46412C6.19175 5.95225 5.79965 13.6312 12.7926 17.8757H12.7898Z" fill="#E23C18"/>
<path d="M16.0197 19.7185C7.38787 23.6751 2.04513 16.7638 0.19464 13.5127C0.067701 14.3226 0 15.1552 0 16.0018C0 16.2135 0.00846262 16.4223 0.0169252 16.6311C2.40056 19.4815 8.8519 23.6554 16.0197 19.7185Z" fill="#E23C18"/>
<path d="M13.5957 13.1624C17.6634 4.58035 26.1965 6.44012 29.7057 7.74112C29.1669 6.84651 28.5435 6.00834 27.8439 5.24072C24.1909 4.58881 16.5604 5.53422 13.5957 13.1652V13.1624Z" fill="#E23C18"/>
<path d="M12.7734 14.1554C13.662 4.70408 22.3052 3.52726 26.0513 3.54701C25.2445 2.8951 24.3757 2.32221 23.4533 1.83398C19.7974 2.47178 12.9512 5.97121 12.7734 14.1554Z" fill="#E23C18"/>
<path d="M14.7476 19.4982C5.2864 20.2658 2.62632 11.9462 1.99726 8.25488C1.49797 9.15796 1.08048 10.1147 0.761719 11.1137C2.02265 14.6046 6.65735 20.7456 14.7448 19.501L14.7476 19.4982Z" fill="#E23C18"/>
<path d="M14.7109 12.5136C21.4641 5.8421 28.8463 10.5042 31.7011 12.9284C31.5008 11.8955 31.1989 10.8965 30.8097 9.94264C27.5995 8.08004 20.1044 6.35573 14.7109 12.5136Z" fill="#E23C18"/>
<path d="M19.6568 15.3359C25.0474 23.1447 19.1857 29.6046 16.3027 32.0005C17.3606 31.9808 18.393 31.8594 19.3916 31.645C21.7837 28.8059 24.7795 21.7196 19.6568 15.3388V15.3359Z" fill="#E23C18"/>
<path d="M17.252 12.4988C26.7132 11.7312 29.3704 20.0508 29.9995 23.745C30.4988 22.8419 30.9163 21.8852 31.235 20.8862C29.9741 17.3952 25.3394 11.2543 17.252 12.4988Z" fill="#E23C18"/>
<path d="M18.375 13.1396C27.5231 15.6542 27.1818 24.3745 26.5132 28.063C27.2974 27.3801 28.0139 26.6209 28.6514 25.7969C28.6571 22.0829 26.3976 14.7341 18.3778 13.1396H18.375Z" fill="#E23C18"/>
<path d="M31.9833 15.3692C29.5996 12.5188 23.1483 8.3449 15.9805 12.2818C24.6095 8.32233 29.9523 15.2337 31.8056 18.4876C31.9325 17.6776 32.0002 16.8451 32.0002 15.9985C32.0002 15.7868 31.9918 15.578 31.9833 15.3692Z" fill="#E23C18"/>
<path d="M19.209 14.1249C26.9495 19.6224 23.6406 27.7049 21.7506 30.9363C22.7294 30.5581 23.6603 30.0896 24.5348 29.5337C25.8098 26.0455 26.2019 18.3665 19.209 14.1221V14.1249Z" fill="#E23C18"/>
<path d="M18.403 18.8349C14.3353 27.4169 5.80214 25.5571 2.29297 24.2561C2.83176 25.1508 3.45517 25.9889 4.15475 26.7565C7.80778 27.4084 15.4382 26.463 18.403 18.832V18.8349Z" fill="#E23C18"/>
<path d="M17.2909 19.4871C10.5377 26.1586 3.15551 21.4965 0.300781 19.0723C0.501063 20.1052 0.802897 21.1042 1.19218 22.0581C4.40233 23.9207 11.8974 25.645 17.2909 19.4871Z" fill="#E23C18"/>
<path d="M19.2271 17.8418C18.3385 27.2931 9.69534 28.4699 5.94922 28.4501C6.75599 29.102 7.62482 29.6749 8.54724 30.1632C12.2031 29.5254 19.0494 26.0259 19.2271 17.8418Z" fill="#E23C18"/>
<path d="M19.6614 16.625C22.0591 25.811 14.3327 29.8777 10.8066 31.1392C11.7798 31.4722 12.7925 31.7149 13.8419 31.856C17.0605 30.0047 22.2932 24.3717 19.6614 16.625Z" fill="#E23C18"/>
</g>
<defs>
<clipPath id="clip0_102_429">
<rect width="32" height="32" fill="white"/>
</clipPath>
</defs>
</svg>

<svg width="32" height="32" fill="none" xmlns="http://www.w3.org/2000/svg"><g clip-path="url(#a)" fill="#E23C18"><path d="M12.34 15.373C9.94 6.187 17.667 2.12 21.193.858a15.91 15.91 0 0 0-3.035-.716c-3.219 1.85-8.452 7.484-5.82 15.23Z"/><path d="M12.344 16.665C6.954 8.855 12.812 2.396 15.698 0a16.13 16.13 0 0 0-3.089.356c-2.392 2.839-5.388 9.925-.265 16.306v.003Z"/><path d="M13.625 18.86C4.48 16.344 4.818 7.627 5.49 3.939c-.784.682-1.5 1.442-2.138 2.266-.006 3.714 2.253 11.062 10.273 12.657Z"/><path d="M12.79 17.876C5.052 12.378 8.358 4.296 10.25 1.062c-.979.378-1.91.846-2.784 1.402C6.192 5.952 5.8 13.631 12.793 17.876h-.003ZM16.02 19.718C7.388 23.675 2.045 16.764.195 13.513.068 14.323 0 15.155 0 16.002c0 .212.008.42.017.63 2.384 2.85 8.835 7.023 16.003 3.086ZM13.596 13.162c4.067-8.582 12.6-6.722 16.11-5.42a15.855 15.855 0 0 0-1.862-2.501c-3.653-.652-11.284.293-14.248 7.924v-.003Z"/><path d="M12.773 14.155c.889-9.45 9.532-10.628 13.278-10.608a16.155 16.155 0 0 0-2.598-1.713c-3.656.638-10.502 4.137-10.68 12.321ZM14.748 19.498c-9.462.768-12.122-7.552-12.75-11.243-.5.903-.918 1.86-1.236 2.859 1.26 3.49 5.895 9.632 13.983 8.387l.003-.003Z"/><path d="M14.71 12.514c6.754-6.672 14.136-2.01 16.991.414a15.933 15.933 0 0 0-.891-2.985c-3.21-1.863-10.706-3.587-16.1 2.57ZM19.657 15.336c5.39 7.809-.471 14.269-3.354 16.665 1.058-.02 2.09-.142 3.089-.356 2.392-2.84 5.387-9.925.265-16.306v-.003Z"/><path d="M17.252 12.499C26.713 11.73 29.37 20.05 30 23.745a15.9 15.9 0 0 0 1.235-2.859c-1.26-3.49-5.896-9.632-13.983-8.387Z"/><path d="M18.375 13.14c9.148 2.514 8.807 11.235 8.138 14.923.784-.683 1.5-1.442 2.138-2.266.006-3.714-2.253-11.063-10.273-12.657h-.003Z"/><path d="M31.983 15.37c-2.383-2.851-8.835-7.025-16.003-3.088 8.63-3.96 13.972 2.952 15.826 6.206.127-.81.194-1.643.194-2.49 0-.211-.008-.42-.017-.629ZM19.209 14.125c7.74 5.497 4.432 13.58 2.542 16.811.978-.378 1.91-.846 2.784-1.402 1.275-3.488 1.667-11.168-5.326-15.412v.003ZM18.403 18.835c-4.068 8.582-12.6 6.722-16.11 5.421a15.85 15.85 0 0 0 1.862 2.5c3.653.652 11.283-.293 14.248-7.924v.003Z"/><path d="M17.29 19.487C10.539 26.16 3.157 21.497.3 19.072c.201 1.033.503 2.032.892 2.986 3.21 1.863 10.705 3.587 16.099-2.57Z"/><path d="M19.227 17.842C18.338 27.293 9.695 28.47 5.95 28.45a16.159 16.159 0 0 0 2.598 1.713c3.656-.638 10.502-4.137 10.68-12.321Z"/><path d="M19.661 16.625c2.398 9.186-5.328 13.253-8.854 14.514a15.91 15.91 0 0 0 3.035.717c3.219-1.851 8.451-7.484 5.82-15.231Z"/></g><defs><clipPath id="a"><path fill="#fff" d="M0 0h32v32H0z"/></clipPath></defs></svg>
